app/dist/common/images/sg-blocks.svg

<svg height="18" width="18" xmlns="http://www.w3.org/2000/svg"><path d="m0 0h18v18h-18z" fill="#f0f3fa"/><path d="m14 4.51v3.34l-1 .54v-2.22l-4 2.23v-1.15z" fill="#0092c8"/><path d="m13 8.39v-2.23l-1 .55v1.12z" fill="#0072a6"/><path d="m13.01 4 .99.52-5 2.74-5-2.75.98-.51 4 2.18 4.04-2.18z" fill="#2aace3"/><path d="m9 7.25v1.15l-4-2.15v2.15l4 2.16v4.44l-5-2.76v-1.14l4 2.2v-2.13l-4-2.23v-4.44l5 2.74z" fill="#0072a6"/><path d="m6 6.76-1-.53v2.18l1-.54v-1.1z" fill="#0092c8"/><path d="m10 10.02-3.99-2.16-1.01.54 4 2.18zm-4.93.52-1.07.56 4 2.21v-1.2zm6.93.59-2 1.03v1.18l3.02-1.68zm2-2.2-.93-.55-2.07 1.07 1.03.59 1.97-1.1z" fill="#2aace3"/><path d="m11 10.58v-1.14l1 .54v1.14zm2 .01-1 .55 1 .52v-1.06z" fill="#0072a6"/><path d="m14 8.93-2 1.07v1.15l1-.55v1.07l-3 1.63v-3.27l-1 .55v4.42l5-2.76v-3.3z" fill="#0092c8"/></svg>

<!-- by TradingView --><svg xmlns="http://www.w3.org/2000/svg" width="18" height="18"><path fill="#F0F3FA" d="M0 0h18v18H0z"/><path d="M14 4.51v3.34l-1 .54V6.17L9 8.4V7.25l5-2.74z" fill="#0092C8"/><path d="M13 8.39V6.16l-1 .55v1.12l1 .56z" fill="#0072A6"/><path d="M13.01 4l.99.52-5 2.74-5-2.75.98-.51 4 2.18L13.02 4z" fill="#2AACE3"/><path d="M9 7.25V8.4L5 6.25V8.4l4 2.16V15l-5-2.76V11.1l4 2.2v-2.13L4 8.94V4.5l5 2.74z" fill="#0072A6"/><path d="M6 6.76l-1-.53v2.18l1-.54v-1.1z" fill="#0092C8"/><path d="M10 10.02L6.01 7.86 5 8.4l4 2.18 1-.56zm-4.93.52L4 11.1l4 2.21v-1.2l-2.93-1.57zm6.93.59l-2 1.03v1.18l3.02-1.68-1.02-.53zm2-2.2l-.93-.55L11 9.45l1.03.59L14 8.94z" fill="#2AACE3"/><path d="M11 10.58V9.44l1 .54v1.14l-1-.54zm2 .01l-1 .55 1 .52V10.6z" fill="#0072A6"/><path d="M14 8.93L12 10v1.15l1-.55v1.07l-3 1.63v-3.27l-1 .55V15l5-2.76v-3.3z" fill="#0092C8"/></svg>
